app/assets/images/mfa-options/webauthn.svg

<svg xmlns="http://www.w3.org/2000/svg" width="42" height="40" viewBox="0 0 42 40" fill="none"><path fill-rule="evenodd" clip-rule="evenodd" d="M16.5921 37.3827C15.4474 38.3432 13.7409 38.1939 12.7805 37.0493L2.43675 24.7221C1.47629 23.5775 1.62559 21.871 2.77023 20.9105L16.2148 9.62918C16.5769 9.32534 17.0392 9.28016 17.2474 9.52827L30.3153 25.102C30.5235 25.3501 30.3987 25.7976 30.0366 26.1014L16.5921 37.3827Z" fill="white"/><path fill-rule="evenodd" clip-rule="evenodd" d="M32.1272 26.0653C32.2847 25.5008 32.2946 24.6548 31.697 23.9426L18.6291 8.36889C18.0315 7.6567 17.1967 7.51961 16.6134 7.57662C16.0199 7.63462 15.4789 7.8921 15.0554 8.24748L1.61084 19.5288C-0.296885 21.1296 -0.545713 23.9738 1.05506 25.8815L11.3988 38.2086C12.9995 40.1164 15.8437 40.3652 17.7515 38.7644L31.196 27.4831C31.6195 27.1277 31.9671 26.6397 32.1272 26.0653ZM28.1512 25.329L15.4327 36.001C15.0512 36.3212 14.4823 36.2714 14.1622 35.8899L3.81845 23.5627C3.4983 23.1812 3.54807 22.6123 3.92961 22.2922L16.6481 11.6201L28.1512 25.329Z" fill="#0071BB"/><path fill-rule="evenodd" clip-rule="evenodd" d="M29.6744 24.6189L17.863 10.5427L27.896 2.12389C28.475 1.63812 29.3381 1.71363 29.8239 2.29255L39.8761 14.2724C40.3619 14.8513 40.2864 15.7144 39.7074 16.2002L29.6744 24.6189Z" fill="white"/><path fill-rule="evenodd" clip-rule="evenodd" d="M40.8668 17.5819C42.2088 16.4558 42.3839 14.455 41.2578 13.113L31.2056 1.13317C30.0795 -0.208844 28.0787 -0.383891 26.7367 0.742193L15.3219 10.3203L29.452 27.16L40.8668 17.5819ZM38.2146 15.0983L29.8967 22.0779L20.404 10.765L28.722 3.7854L38.2146 15.0983Z" fill="#0071BB"/><path fill-rule="evenodd" clip-rule="evenodd" d="M31.3723 13.2323L30.9636 12.7452C30.822 12.5765 30.4936 12.6189 30.2301 12.84L24.1183 17.9684L25.0398 19.0666L31.1515 13.9382C31.415 13.7171 31.5139 13.401 31.3723 13.2323Z" fill="#0071BB"/><path fill-rule="evenodd" clip-rule="evenodd" d="M29.5293 11.0359L29.1205 10.5488C28.979 10.38 28.6506 10.4225 28.3871 10.6436L22.2753 15.772L23.1967 16.8702L29.3085 11.7418C29.572 11.5207 29.6709 11.2046 29.5293 11.0359Z" fill="#0071BB"/><path fill-rule="evenodd" clip-rule="evenodd" d="M34.3135 14.5068L33.9047 14.0197C33.7631 13.8509 33.4358 13.8925 33.1736 14.1126L25.9613 20.1644L26.8828 21.2625L34.095 15.2107C34.3573 14.9907 34.4551 14.6755 34.3135 14.5068Z" fill="#0071BB"/><path fill-rule="evenodd" clip-rule="evenodd" d="M28.7852 7.9182L28.3764 7.43105C28.2348 7.26233 27.9075 7.30392 27.6453 7.52394L20.433 13.5757L21.3545 14.6739L28.5667 8.62209C28.8289 8.40206 28.9267 8.08692 28.7852 7.9182Z" fill="#0071BB"/></svg>

<svg xmlns="http://www.w3.org/2000/svg" width="42" height="40" viewBox="0 0 42 40" fill="none"><path fill-rule="evenodd" clip-rule="evenodd" d="M16.592 37.383a2.705 2.705 0 0 1-3.811-.334L2.437 24.722a2.705 2.705 0 0 1 .333-3.812L16.215 9.63c.362-.305.824-.35 1.032-.102l13.068 15.574c.208.248.084.696-.278 1l-13.445 11.28Z" fill="#fff"/><path fill-rule="evenodd" clip-rule="evenodd" d="M32.127 26.065c.158-.564.168-1.41-.43-2.122L18.629 8.369c-.598-.712-1.432-.85-2.016-.792a2.881 2.881 0 0 0-1.558.67L1.611 19.53a4.51 4.51 0 0 0-.556 6.352L11.4 38.21a4.51 4.51 0 0 0 6.353.555l13.444-11.28a2.88 2.88 0 0 0 .931-1.419Zm-3.976-.736L15.433 36.001a.902.902 0 0 1-1.27-.111L3.817 23.563a.902.902 0 0 1 .112-1.27L16.648 11.62l11.503 13.71Z" fill="#0071BB"/><path fill-rule="evenodd" clip-rule="evenodd" d="M29.674 24.619 17.863 10.543l10.033-8.42a1.368 1.368 0 0 1 1.928.17l10.052 11.98c.486.578.41 1.441-.169 1.927l-10.033 8.42Z" fill="#fff"/><path fill-rule="evenodd" clip-rule="evenodd" d="M40.867 17.582a3.172 3.172 0 0 0 .39-4.469l-10.05-11.98a3.172 3.172 0 0 0-4.47-.39L15.323 10.32l14.13 16.84 11.415-9.578Zm-2.652-2.484-8.318 6.98-9.493-11.313 8.318-6.98 9.493 11.313Z" fill="#0071BB"/><path fill-rule="evenodd" clip-rule="evenodd" d="m31.372 13.232-.408-.487c-.142-.168-.47-.126-.734.095l-6.112 5.128.922 1.099 6.111-5.129c.264-.22.363-.537.221-.706Zm-1.842-2.196-.41-.487c-.141-.169-.47-.127-.733.095l-6.112 5.128.922 1.098 6.111-5.128c.264-.221.363-.537.221-.706Zm4.783 3.471-.408-.487c-.142-.17-.47-.127-.731.093l-7.213 6.051.922 1.098 7.212-6.051c.262-.22.36-.536.218-.704Zm-5.528-6.589-.409-.487c-.141-.169-.469-.127-.73.093l-7.213 6.052.922 1.098 7.212-6.052c.262-.22.36-.535.218-.704Z" fill="#0071BB"/></svg>
